app/assets/images/phone-review.svg

<svg width="40" height="40" viewBox="0 0 40 40" fill="none" xmlns="http://www.w3.org/2000/svg">
<path d="M36.2901 40C16.2765 40 0 23.6372 0 3.5175C0 1.57459 1.56628 0 3.49894 0H10.6709C12.5577 0 14.0965 1.51013 14.1698 3.38858L15.3056 10.5525C15.6536 11.7772 15.3147 13.0939 14.4079 13.9963L12.2371 16.1971C14.8934 21.0037 18.9144 25.046 23.6957 27.7072L25.8665 25.5157C26.7642 24.6041 28.0648 24.2726 29.2922 24.6133L36.4183 25.7551C38.2868 25.8195 39.789 27.3757 39.789 29.2726V36.4825C39.789 38.4254 38.2227 40 36.2901 40ZM3.49894 2.90976C3.1692 2.90976 2.89441 3.1768 2.89441 3.5175C2.89441 22.0258 17.8794 37.0902 36.2901 37.0902C36.629 37.0902 36.8946 36.8232 36.8946 36.4825V29.2726C36.8946 28.9319 36.629 28.6648 36.2901 28.6648C36.2168 28.6648 36.1344 28.6556 36.0611 28.6464L28.7426 27.4678C28.6693 27.4586 28.5961 27.4401 28.5319 27.4217C28.3579 27.3665 28.1014 27.3757 27.9183 27.5691L24.9964 30.5249C24.5567 30.9761 23.8697 31.0773 23.3202 30.7919C17.2749 27.7072 12.2555 22.6611 9.17785 16.5838C8.89391 16.0221 9.00382 15.3407 9.44348 14.8987L12.3654 11.9337C12.5577 11.7403 12.5669 11.4825 12.5119 11.3076C12.4936 11.2339 12.4753 11.1694 12.4661 11.0958L11.2937 3.73849C11.2754 3.67403 11.2754 3.59116 11.2754 3.5175C11.2754 3.1768 11.0098 2.90976 10.6709 2.90976H3.49894V2.90976Z" fill="black"/>
<path d="M19.8305 19.6133C19.6473 19.6133 19.4641 19.5764 19.2901 19.5028C18.7497 19.2818 18.3924 18.7569 18.3833 18.1768L18.1909 4.03315C18.1909 1.80479 19.9862 0 22.1845 0H36.0062C38.2045 0 39.9998 1.80479 39.9998 4.01473V11.8785C39.9998 14.0884 38.2045 15.8932 36.0062 15.8932H24.1263L20.8472 19.1897C20.5724 19.4659 20.206 19.6133 19.8305 19.6133ZM22.1845 2.90976C21.5799 2.90976 21.0853 3.407 21.0853 4.01473L21.2319 14.6961L22.5051 13.4162C22.7798 13.14 23.1462 12.9926 23.5309 12.9926H36.0062C36.6107 12.9926 37.1053 12.4954 37.1053 11.8877V4.01473C37.1053 3.407 36.6107 2.90976 36.0062 2.90976H22.1845Z" fill="black"/>
<path d="M25.308 7.48618H33.1578C33.9546 7.48618 34.605 6.8324 34.605 6.0313C34.605 5.23019 33.9546 4.57642 33.1578 4.57642H25.308C24.5112 4.57642 23.8608 5.23019 23.8608 6.0313C23.8608 6.8324 24.5112 7.48618 25.308 7.48618Z" fill="black"/>
<path d="M33.1578 8.48059H25.308C24.5112 8.48059 23.8608 9.13437 23.8608 9.93547C23.8608 10.7366 24.5112 11.3904 25.308 11.3904H33.1578C33.9546 11.3904 34.605 10.7366 34.605 9.93547C34.605 9.13437 33.9638 8.48059 33.1578 8.48059Z" fill="black"/>
</svg>

<svg width="40" height="40" fill="none" xmlns="http://www.w3.org/2000/svg"><path d="M36.29 40C16.276 40 0 23.637 0 3.517A3.508 3.508 0 013.499 0h7.172c1.887 0 3.426 1.51 3.499 3.389l1.136 7.164a3.502 3.502 0 01-.898 3.443l-2.17 2.201c2.655 4.807 6.676 8.849 11.458 11.51l2.17-2.191a3.473 3.473 0 013.426-.903l7.126 1.142c1.869.065 3.371 1.62 3.371 3.518v7.21A3.508 3.508 0 0136.29 40zM3.5 2.91a.606.606 0 00-.605.607c0 18.509 14.985 33.573 33.396 33.573a.6.6 0 00.605-.608v-7.21a.6.6 0 00-.605-.607 1.92 1.92 0 01-.229-.019l-7.318-1.178a1.42 1.42 0 01-.211-.046.596.596 0 00-.614.147l-2.922 2.956a1.43 1.43 0 01-1.676.267c-6.045-3.085-11.065-8.13-14.142-14.208a1.46 1.46 0 01.265-1.685l2.922-2.965a.623.623 0 00.147-.626c-.018-.074-.037-.139-.046-.212l-1.172-7.358c-.019-.064-.019-.147-.019-.22a.6.6 0 00-.604-.608H3.499z" fill="#000"/><path d="M19.831 19.613a1.461 1.461 0 01-1.447-1.436L18.19 4.033C18.191 1.805 19.987 0 22.185 0h13.822C38.205 0 40 1.805 40 4.015v7.864c0 2.21-1.795 4.014-3.993 4.014h-11.88l-3.28 3.297a1.432 1.432 0 01-1.016.423zM22.185 2.91c-.605 0-1.1.497-1.1 1.105l.147 10.681 1.274-1.28a1.437 1.437 0 011.025-.423h12.476c.604 0 1.099-.498 1.099-1.105V4.015c0-.608-.495-1.105-1.1-1.105H22.186z" fill="#000"/><path d="M25.308 7.486h7.85c.797 0 1.447-.654 1.447-1.455 0-.8-.65-1.455-1.447-1.455h-7.85c-.796 0-1.447.654-1.447 1.455s.65 1.455 1.447 1.455zM33.158 8.48h-7.85c-.796 0-1.447.654-1.447 1.456 0 .8.65 1.454 1.447 1.454h7.85c.797 0 1.447-.653 1.447-1.454 0-.802-.64-1.455-1.447-1.455z" fill="#8E8EEF"/></svg>
